assets/svg/osp.svg

<svg width="50" height="50" viewBox="0 0 50 50" fill="none" xmlns="http://www.w3.org/2000/svg">
<path d="M50 1.79032V48.2097C49.9983 48.684 49.8092 49.1384 49.4738 49.4738C49.1384 49.8092 48.684 49.9983 48.2097 50H1.79032C1.31601 49.9983 0.861611 49.8092 0.526222 49.4738C0.190834 49.1384 0.00167362 48.684 0 48.2097V1.79032C0.00167362 1.31601 0.190834 0.861611 0.526222 0.526222C0.861611 0.190834 1.31601 0.00167362 1.79032 0H48.2097C48.684 0.00167362 49.1384 0.190834 49.4738 0.526222C49.8092 0.861611 49.9983 1.31601 50 1.79032Z" fill="#1D4976"/>
<path d="M0 5.33871V48.2097C0.00167362 48.684 0.190834 49.1384 0.526222 49.4738C0.861611 49.8092 1.31601 49.9983 1.79032 50H48.2097C48.684 49.9983 49.1384 49.8092 49.4738 49.4738C49.8092 49.1384 49.9983 48.684 50 48.2097V5.33871H0ZM45.4032 43.6773C45.4046 43.9213 45.3575 44.1631 45.2648 44.3887C45.172 44.6144 45.0354 44.8194 44.8629 44.9919C44.6904 45.1644 44.4854 45.3009 44.2598 45.3937C44.0341 45.4864 43.7923 45.5335 43.5484 45.5322H6.45161C6.20766 45.5335 5.96586 45.4864 5.74022 45.3937C5.51458 45.3009 5.30957 45.1644 5.13706 44.9919C4.96456 44.8194 4.82798 44.6144 4.73524 44.3887C4.6425 44.1631 4.59544 43.9213 4.59677 43.6773V11.6774C4.59544 11.4335 4.6425 11.1917 4.73524 10.966C4.82798 10.7404 4.96456 10.5354 5.13706 10.3629C5.30957 10.1904 5.51458 10.0538 5.74022 9.96105C5.96586 9.86831 6.20766 9.82124 6.45161 9.82258H43.5484C43.7923 9.82124 44.0341 9.86831 44.2598 9.96105C44.4854 10.0538 44.6904 10.1904 44.8629 10.3629C45.0354 10.5354 45.172 10.7404 45.2648 10.966C45.3575 11.1917 45.4046 11.4335 45.4032 11.6774V43.6773Z" fill="#4482C3"/>
<path d="M45.4032 11.6774V43.6773C45.4046 43.9213 45.3575 44.1631 45.2648 44.3887C45.172 44.6144 45.0354 44.8194 44.8629 44.9919C44.6904 45.1644 44.4854 45.3009 44.2598 45.3937C44.0341 45.4864 43.7923 45.5335 43.5484 45.5322H6.45161C6.20765 45.5335 5.96586 45.4864 5.74021 45.3937C5.51457 45.3009 5.30956 45.1644 5.13706 44.9919C4.96455 44.8194 4.82798 44.6144 4.73524 44.3887C4.6425 44.1631 4.59543 43.9213 4.59677 43.6773V11.6774C4.59543 11.4335 4.6425 11.1917 4.73524 10.966C4.82798 10.7404 4.96455 10.5354 5.13706 10.3629C5.30956 10.1904 5.51457 10.0538 5.74021 9.96105C5.96586 9.86831 6.20765 9.82124 6.45161 9.82258H43.5484C43.7923 9.82124 44.0341 9.86831 44.2598 9.96105C44.4854 10.0538 44.6904 10.1904 44.8629 10.3629C45.0354 10.5354 45.172 10.7404 45.2648 10.966C45.3575 11.1917 45.4046 11.4335 45.4032 11.6774Z" fill="#B0D3F0"/>
<path d="M8.84184 2.67923C8.84184 2.89312 8.75688 3.09824 8.60564 3.24948C8.4544 3.40072 8.24927 3.48568 8.03539 3.48568H4.46462C4.25074 3.48568 4.04562 3.40072 3.89438 3.24948C3.74314 3.09824 3.65817 2.89312 3.65817 2.67923C3.65817 2.46535 3.74314 2.26023 3.89438 2.10899C4.04562 1.95775 4.25074 1.87278 4.46462 1.87278H8.03539C8.24927 1.87278 8.4544 1.95775 8.60564 2.10899C8.75688 2.26023 8.84184 2.46535 8.84184 2.67923ZM15.9849 2.67923C15.9849 2.46535 15.8999 2.26023 15.7487 2.10899C15.5974 1.95775 15.3923 1.87278 15.1784 1.87278H11.607C11.3931 1.87278 11.188 1.95775 11.0367 2.10899C10.8855 2.26023 10.8005 2.46535 10.8005 2.67923C10.8005 2.89312 10.8855 3.09824 11.0367 3.24948C11.188 3.40072 11.3931 3.48568 11.607 3.48568H15.1784C15.3923 3.48568 15.5974 3.40072 15.7487 3.24948C15.8999 3.09824 15.9849 2.89312 15.9849 2.67923ZM22.3216 1.87278H18.75C18.5361 1.87278 18.331 1.95775 18.1798 2.10899C18.0285 2.26023 17.9436 2.46535 17.9436 2.67923C17.9436 2.89312 18.0285 3.09824 18.1798 3.24948C18.331 3.40072 18.5361 3.48568 18.75 3.48568H22.3216C22.5355 3.48568 22.7406 3.40072 22.8918 3.24948C23.0431 3.09824 23.128 2.89312 23.128 2.67923C23.128 2.46535 23.0431 2.26023 22.8918 2.10899C22.7406 1.95775 22.5355 1.87278 22.3216 1.87278ZM11.2848 13.7159C11.2103 13.6392 11.1213 13.5781 11.023 13.5362C10.9247 13.4942 10.819 13.4721 10.7121 13.4714C10.6053 13.4706 10.4993 13.4911 10.4004 13.5316C10.3015 13.5722 10.2116 13.632 10.136 13.7076C10.0604 13.7832 10.0006 13.873 9.96009 13.9719C9.91955 14.0709 9.89907 14.1768 9.89986 14.2837C9.90065 14.3906 9.92268 14.4963 9.96467 14.5946C10.0067 14.6929 10.0678 14.7819 10.1445 14.8564L13.1452 17.8571L10.1446 20.8591C10.0675 20.9335 10.0061 21.0225 9.96384 21.1208C9.92157 21.2192 9.89932 21.3251 9.89839 21.4321C9.89746 21.5392 9.91787 21.6454 9.95842 21.7445C9.99897 21.8436 10.0588 21.9337 10.1346 22.0094C10.2103 22.0851 10.3003 22.145 10.3994 22.1855C10.4985 22.2261 10.6047 22.2465 10.7118 22.2456C10.8189 22.2446 10.9247 22.2224 11.0231 22.1801C11.1215 22.1379 11.2105 22.0764 11.2849 21.9994L14.8556 18.4274C15.0068 18.2762 15.0917 18.0711 15.0917 17.8572C15.0917 17.6433 15.0068 17.4382 14.8556 17.287L11.2848 13.7159ZM21.4284 20.6228H16.0716C15.8577 20.6228 15.6526 20.7077 15.5013 20.859C15.3501 21.0102 15.2651 21.2153 15.2651 21.4292C15.2651 21.6431 15.3501 21.8482 15.5013 21.9995C15.6526 22.1507 15.8577 22.2357 16.0716 22.2357H21.4284C21.6423 22.2357 21.8474 22.1507 21.9987 21.9995C22.1499 21.8482 22.2349 21.6431 22.2349 21.4292C22.2349 21.2153 22.1499 21.0102 21.9987 20.859C21.8474 20.7077 21.6423 20.6228 21.4284 20.6228Z" fill="black"/>
</svg>

<svg xmlns="http://www.w3.org/2000/svg" width="50" height="50" fill="none" viewBox="0 0 50 50"><path fill="#1d4976" d="M50 1.79v46.42A1.797 1.797 0 0 1 48.21 50H1.79A1.797 1.797 0 0 1 0 48.21V1.79A1.797 1.797 0 0 1 1.79 0h46.42A1.797 1.797 0 0 1 50 1.79"/><path fill="#4482c3" d="M0 5.339v42.87A1.797 1.797 0 0 0 1.79 50h46.42A1.797 1.797 0 0 0 50 48.21V5.339zm45.403 38.338a1.844 1.844 0 0 1-1.855 1.855H6.452a1.846 1.846 0 0 1-1.855-1.855v-32a1.845 1.845 0 0 1 1.855-1.854h37.096a1.845 1.845 0 0 1 1.855 1.854z"/><path fill="#b0d3f0" d="M45.403 11.677v32a1.844 1.844 0 0 1-1.855 1.855H6.452a1.846 1.846 0 0 1-1.855-1.855v-32a1.845 1.845 0 0 1 1.855-1.854h37.096a1.845 1.845 0 0 1 1.855 1.854"/><path fill="#000" d="M8.842 2.68a.806.806 0 0 1-.807.806h-3.57a.806.806 0 1 1 0-1.613h3.57a.806.806 0 0 1 .807.806m7.143 0a.807.807 0 0 0-.807-.807h-3.571a.807.807 0 0 0 0 1.613h3.571a.807.807 0 0 0 .807-.807m6.337-.807H18.75a.806.806 0 1 0 0 1.613h3.572a.806.806 0 1 0 0-1.613M11.285 13.716a.805.805 0 0 0-1.385.568.8.8 0 0 0 .245.572l3 3.001-3 3.002a.806.806 0 1 0 1.14 1.14l3.57-3.572a.806.806 0 0 0 0-1.14zm10.143 6.907h-5.356a.806.806 0 1 0 0 1.613h5.356a.807.807 0 0 0 0-1.613"/></svg>
